X: 42239
T: We Saw You Coming
R: hornpipe
M: 4/4
K: Cmajor
|:G2|c2 ec fcec|dBGA _B2 AG|c2 ec fcec|dfed cBAG|
c2 ec fcec|dBGA _B2 AG|cege fdec|dfed c2:|
|:ef|gece gece|dBGA _B2 AG|gece gece|dBcA G2 ef|
gece gece|dBGA _B2 AG|gefd ecdB|Gfed c2:|

